X:192
T:Puddleglum's Misery
B:c>BA>B
M:4/4
L:1/8
Q:160
K:Am
E2 e2 ^d2 =d2 | c>BA>B c2 B>A |
^G>FG>B e>BG>E |A>EA>c e>cA>c |
E2 e2 ^d2 =d2 | c>BA>B c2 B>A |
^G>FG>B e>dc>B | A2 A2 A4 :||
G2 g2 ^f2  =f2  |e>dc>d e2 d>c |
B>GB>d g>dB>G | c>Bc>d e>dc>A |
G2 g2 ^f2  =f2  | e>dc>d e4 |
(3FGF ^D>E e>dc>B |A2 A2 A4 :||!
